articles/2016/02/08/a-fork-in-the-road/mining2.svg

<svg version="1.1" style="position: absolute; width: 480px; height: 320px; top: 0px; left: 0px;"><desc>JavaScript chart by amCharts 3.18.3</desc><g><path cs="100,100" d="M0.5,0.5 L479.5,0.5 L479.5,215.5 L0.5,215.5 Z" fill="#FFFFFF" stroke="#000000" fill-opacity="0" stroke-width="1" stroke-opacity="0"></path></g><g></g><g></g><g></g><g></g><g></g><g><g opacity="1" visibility="visible" transform="translate(0,0)"><path cs="1000,1000" d=" M240,108 L231.6607138650789,63.779458316751565 A45,45,0,0,1,239.99999999999994,63 L240,108 Z" fill="#0D52D1" stroke="#FFFFFF" stroke-width="1" stroke-opacity="0" fill-opacity="1"></path><path cs="100,100" d="M236.5,63.5 L234.5,17.5 L226.5,17.5" fill="none" stroke-opacity="0.2" stroke="#000000" visibility="visible"></path></g><g opacity="1" visibility="visible" transform="translate(0,0)"><path cs="1000,1000" d=" M240,108 L221.31182947944026,67.06404657767843 A45,45,0,0,1,231.6607138650789,63.779458316751565 L240,108 Z" fill="#0D8ECF" stroke="#FFFFFF" stroke-width="1" stroke-opacity="0" fill-opacity="1"></path><path cs="100,100" d="M226.5,65.5 L220.5,35.5 L212.5,35.5" fill="none" stroke-opacity="0.2" stroke="#000000" visibility="visible"></path></g><g opacity="1" visibility="visible" transform="translate(0,0)"><path cs="1000,1000" d=" M240,108 L207.12753137161198,77.26889513415365 A45,45,0,0,1,221.31182947944026,67.06404657767843 L240,108 Z" fill="#04D215" stroke="#FFFFFF" stroke-width="1" stroke-opacity="0" fill-opacity="1"></path><path cs="100,100" d="M214.5,72.5 L202.5,55.5 L194.5,55.5" fill="none" stroke-opacity="0.2" stroke="#000000" visibility="visible"></path></g><g opacity="1" visibility="visible" transform="translate(0,0)"><path cs="1000,1000" d=" M240,108 L197.50617788349777,93.1920601726281 A45,45,0,0,1,207.12753137161198,77.26889513415365 L240,108 Z" fill="#B0DE09" stroke="#FFFFFF" stroke-width="1" stroke-opacity="0" fill-opacity="1"></path><path cs="100,100" d="M202.5,85.5 L185.5,75.5 L177.5,75.5" fill="none" stroke-opacity="0.2" stroke="#000000" visibility="visible"></path></g><g opacity="1" visibility="visible" transform="translate(0,0)"><path cs="1000,1000" d=" M240,108 L195.3147622142957,113.31314634045273 A45,45,0,0,1,197.50617788349777,93.1920601726281 L240,108 Z" fill="#F8FF01" stroke="#FFFFFF" stroke-width="1" stroke-opacity="0" fill-opacity="1"></path><path cs="100,100" d="M196.5,103.5 L176.5,101.5 L168.5,101.5" fill="none" stroke-opacity="0.2" stroke="#000000" visibility="visible"></path></g><g opacity="1" visibility="visible" transform="translate(0,0)"><path cs="1000,1000" d=" M240,108 L215.7246438329881,145.89072555342162 A45,45,0,0,1,195.3147622142957,113.31314634045273 L240,108 Z" fill="#FCD202" stroke="#FFFFFF" stroke-width="1" stroke-opacity="0" fill-opacity="1"></path><path cs="100,100" d="M202.5,132.5 L185.5,142.5 L177.5,142.5" fill="none" stroke-opacity="0.2" stroke="#000000" visibility="visible"></path></g><g opacity="1" visibility="visible" transform="translate(0,0)"><path cs="1000,1000" d=" M240,108 L240,63 A45,45,0,0,1,284.67333797922197,102.58771085452707 L240,108 Z" fill="#FF0F00" stroke="#FFFFFF" stroke-width="1" stroke-opacity="0" fill-opacity="1"></path><path cs="100,100" d="M270.5,75.5 L283.5,60.5 L291.5,60.5" fill="none" stroke-opacity="0.2" stroke="#000000" visibility="visible"></path></g><g opacity="1" visibility="visible" transform="translate(0,0)"><path cs="1000,1000" d=" M240,108 L284.67333797922197,102.58771085452707 A45,45,0,0,1,260.09969515155757,148.26167228040154 L240,108 Z" fill="#FF6600" stroke="#FFFFFF" stroke-width="1" stroke-opacity="0" fill-opacity="1"></path><path cs="100,100" d="M279.5,129.5 L297.5,139.5 L305.5,139.5" fill="none" stroke-opacity="0.2" stroke="#000000" visibility="visible"></path></g><g opacity="1" visibility="visible" transform="translate(0,0)"><path cs="1000,1000" d=" M240,108 L260.09969515155757,148.26167228040154 A45,45,0,0,1,215.7246438329881,145.89072555342162 L240,108 Z" fill="#FF9E01" stroke="#FFFFFF" stroke-width="1" stroke-opacity="0" fill-opacity="1"></path><path cs="100,100" d="M238.5,153.5 L237.5,173.5 L229.5,173.5" fill="none" stroke-opacity="0.2" stroke="#000000" visibility="visible"></path></g></g><g></g><g><g visibility="visible" transform="translate(0,0)" opacity="1"><text y="6" fill="#000000" font-family="Verdana" font-size="11px" opacity="1" text-anchor="start" transform="translate(295,60)" visibility="visible" style="pointer-events: none;"><tspan y="6" x="0">F2Pool: 23.08%</tspan></text></g><g visibility="visible" transform="translate(0,0)" opacity="1"><text y="6" fill="#000000" font-family="Verdana" font-size="11px" opacity="1" text-anchor="start" transform="translate(309,139)" visibility="visible" style="pointer-events: none;"><tspan y="6" x="0">AntPool: 19.55%</tspan></text></g><g visibility="visible" transform="translate(0,0)" opacity="1"><text y="6" fill="#000000" font-family="Verdana" font-size="11px" opacity="1" text-anchor="end" transform="translate(225,173)" visibility="visible" style="pointer-events: none;"><tspan y="6" x="0">BitFury: 16.44%</tspan></text></g><g visibility="visible" transform="translate(0,0)" opacity="1"><text y="6" fill="#000000" font-family="Verdana" font-size="11px" opacity="1" text-anchor="end" transform="translate(173,142)" visibility="visible" style="pointer-events: none;"><tspan y="6" x="0">BTCC Pool: 14.05%</tspan></text></g><g visibility="visible" transform="translate(0,0)" opacity="1"><text y="6" fill="#000000" font-family="Verdana" font-size="11px" opacity="1" text-anchor="end" transform="translate(164,101)" visibility="visible" style="pointer-events: none;"><tspan y="6" x="0">BW.COM: 7.22%</tspan></text></g><g visibility="visible" transform="translate(0,0)" opacity="1"><text y="6" fill="#000000" font-family="Verdana" font-size="11px" opacity="1" text-anchor="end" transform="translate(173,75)" visibility="visible" style="pointer-events: none;"><tspan y="6" x="0">KnCMiner: 6.63%</tspan></text></g><g visibility="visible" transform="translate(0,0)" opacity="1"><text y="6" fill="#000000" font-family="Verdana" font-size="11px" opacity="1" text-anchor="end" transform="translate(190,55)" visibility="visible" style="pointer-events: none;"><tspan y="6" x="0">Slush: 6.22%</tspan></text></g><g visibility="visible" transform="translate(0,0)" opacity="1"><text y="6" fill="#000000" font-family="Verdana" font-size="11px" opacity="1" text-anchor="end" transform="translate(208,35)" visibility="visible" style="pointer-events: none;"><tspan y="6" x="0">21 Inc.: 3.85%</tspan></text></g><g visibility="visible" transform="translate(0,0)" opacity="1"><text y="6" fill="#000000" font-family="Verdana" font-size="11px" opacity="1" text-anchor="end" transform="translate(222,17)" visibility="visible" style="pointer-events: none;"><tspan y="6" x="0">Eligius: 2.97%</tspan></text></g></g><g></g><g></g><g></g><g><g></g></g><g></g><g></g><g></g><g></g><g></g></svg>

<svg style="position:absolute;width:480px;height:320px;top:0;left:0"><desc>JavaScript chart by amCharts 3.18.3</desc><path d="M.5.5h479v215H.5z" fill="none"/><path d="M240 108l-8.34-44.22A45 45 0 0 1 240 63v45z" fill="#0D52D1"/><path d="M236.5 63.5l-2-46h-8" fill="none" stroke-opacity=".2" stroke="#000"/><path d="M240 108l-18.688-40.936a45 45 0 0 1 10.349-3.285L240 108z" fill="#0D8ECF"/><path d="M226.5 65.5l-6-30h-8" fill="none" stroke-opacity=".2" stroke="#000"/><path d="M240 108l-32.872-30.731a45 45 0 0 1 14.184-10.205L240 108z" fill="#04D215"/><path d="M214.5 72.5l-12-17h-8" fill="none" stroke-opacity=".2" stroke="#000"/><path d="M240 108l-42.494-14.808a45 45 0 0 1 9.622-15.923L240 108z" fill="#B0DE09"/><path d="M202.5 85.5l-17-10h-8" fill="none" stroke-opacity=".2" stroke="#000"/><path d="M240 108l-44.685 5.313a45 45 0 0 1 2.191-20.12L240 108z" fill="#F8FF01"/><path d="M196.5 103.5l-20-2h-8" fill="none" stroke-opacity=".2" stroke="#000"/><path d="M240 108l-24.275 37.89a45 45 0 0 1-20.41-32.577L240 108z" fill="#FCD202"/><path d="M202.5 132.5l-17 10h-8" fill="none" stroke-opacity=".2" stroke="#000"/><g><path d="M240 108V63a45 45 0 0 1 44.673 39.588L240 108z" fill="#FF0F00"/><path d="M270.5 75.5l13-15h8" fill="none" stroke-opacity=".2" stroke="#000"/></g><g><path d="M240 108l44.673-5.412a45 45 0 0 1-24.573 45.674L240 108z" fill="#F60"/><path d="M279.5 129.5l18 10h8" fill="none" stroke-opacity=".2" stroke="#000"/></g><g><path d="M240 108l20.1 40.262a45 45 0 0 1-44.375-2.371L240 108z" fill="#FF9E01"/><path d="M238.5 153.5l-1 20h-8" fill="none" stroke-opacity=".2" stroke="#000"/></g><g><text y="6" font-family="Verdana" font-size="11" transform="translate(295 60)" pointer-events="none"><tspan y="6" x="0">F2Pool: 23.08%</tspan></text><text y="6" font-family="Verdana" font-size="11" transform="translate(309 139)" pointer-events="none"><tspan y="6" x="0">AntPool: 19.55%</tspan></text><text y="6" font-family="Verdana" font-size="11" text-anchor="end" transform="translate(225 173)" pointer-events="none"><tspan y="6" x="0">BitFury: 16.44%</tspan></text><text y="6" font-family="Verdana" font-size="11" text-anchor="end" transform="translate(173 142)" pointer-events="none"><tspan y="6" x="0">BTCC Pool: 14.05%</tspan></text><text y="6" font-family="Verdana" font-size="11" text-anchor="end" transform="translate(164 101)" pointer-events="none"><tspan y="6" x="0">BW.COM: 7.22%</tspan></text><text y="6" font-family="Verdana" font-size="11" text-anchor="end" transform="translate(173 75)" pointer-events="none"><tspan y="6" x="0">KnCMiner: 6.63%</tspan></text><text y="6" font-family="Verdana" font-size="11" text-anchor="end" transform="translate(190 55)" pointer-events="none"><tspan y="6" x="0">Slush: 6.22%</tspan></text><text y="6" font-family="Verdana" font-size="11" text-anchor="end" transform="translate(208 35)" pointer-events="none"><tspan y="6" x="0">21 Inc.: 3.85%</tspan></text><text y="6" font-family="Verdana" font-size="11" text-anchor="end" transform="translate(222 17)" pointer-events="none"><tspan y="6" x="0">Eligius: 2.97%</tspan></text></g></svg>
